X:64
T:Oak and the Ash
R:
M:4/4
K:Fmin
C2 | F2 F G A2 GA | G2 G A B2 A-G | F2 F G A2 G F | =E2 c>=B c2 cd |
e2 c B A2 G A | B2 G F E2 F-G | A2 G F =E-F G G | F2 c>=B c2 c d |
e2 c B A2 G A | B A G F E2 F-G | A2 G F =E-F G G | F2 F>=E F4 ||
